X: 1
T: Midnight on the Water
C: Luke Thomasson (c.1900?)
R: waltz
Z: 2015 John Chambers <jc:trillian.mit.edu>
S: printed copy of unknown origin in Concord Slow Scottish Session collection
M: 3/4
L: 1/8
K: D
(DE "A"|\
"D".F2.F2.F2) | (.F2.F2.F2) | A4- AB | (AF) (3E/F/E/D (DE |\
F2) d2 "G"(Bd) | "D"A3 (F DE | "A"F2) (AF (3E/F/E/D) | "D"D4 :|
|: (Bc "B"|\
"D"d2) d3 (e | dc) (BA) Bc | {c}d3 (B AF) | F4 [d2F2] |\
"Em"e4 (ef) | e3 (d ed) | "Bm"(f3 a) (fe) | (dc) (BA) ||
(Bc) |\
"G"{c}d3 (c d)e | (dc) (BA) Bc | "D"d3 (B AF) | D4 (DE |\
F2) d2 "G"(Bd) | "D"A3 (F DE) | "A"F2 (AF ED) | "D"D4 :|
